lib/healthicons/icons/outline/typography/5.svg

<svg fill="none" height="48" viewBox="0 0 48 48" width="48" xmlns="http://www.w3.org/2000/svg"><path clip-rule="evenodd" d="m35 12c0-1.6569-1.3431-3-3-3h-14c-1.4301 0-2.6613 1.0094-2.9418 2.4117l-2 10c-.2379 1.1898.2643 2.4058 1.2724 3.081 1.0082.6751 2.3238.6765 3.3334.0035.5081-.3387 2.9292-1.4962 6.336-1.4962 2.7614 0 5 2.2386 5 5s-2.2386 5-5 5h-2.2181c-1.3991 0-2.5459-.8715-2.9603-2.019-.5628-1.5584-2.2823-2.3654-3.8407-1.8026-1.5583.5628-2.3654 2.2823-1.8026 3.8406 1.2688 3.513 4.6637 5.981 8.6036 5.981h2.2181c6.0751 0 11-4.9249 11-11s-4.9249-11-11-11c-1.4558 0-2.8066.1515-4.0183.3885l.4777-2.3885h11.5406c1.6569 0 3-1.3431 3-3zm-3-1c.5523 0 1 .4477 1 1s-.4477 1-1 1h-12.3604c-.4767 0-.8871.3365-.9806.8039l-.9439 4.7194c-.0682.3408.0455.6926.3003.9291.2547.2364.614.3236.9488.2303 1.4112-.3933 3.1224-.6827 5.0358-.6827 4.9706 0 9 4.0294 9 9s-4.0294 9-9 9h-2.2181c-3.0928 0-5.7384-1.9356-6.7225-4.6603-.1876-.5195.0814-1.0926.6009-1.2802.5194-.1876 1.0926.0814 1.2802.6008.6993 1.9363 2.5957 3.3397 4.8414 3.3397h2.2181c3.866 0 7-3.134 7-7s-3.134-7-7-7c-3.8022 0-6.6093 1.2747-7.4453 1.8321-.3366.2243-.7751.2238-1.1112-.0012-.336-.2251-.5034-.6304-.4241-1.027l2-10c.0935-.4674.5039-.8039.9806-.8039z" fill="#333" fill-rule="evenodd"/></svg>

<svg width="48" height="48" viewBox="0 0 48 48" fill="none" xmlns="http://www.w3.org/2000/svg">
<path fill-rule="evenodd" clip-rule="evenodd" d="M35 12C35 10.3431 33.6569 9 32 9H18C16.5699 9 15.3387 10.0094 15.0582 11.4117L13.0582 21.4117C12.8203 22.6015 13.3225 23.8175 14.3306 24.4927C15.3388 25.1678 16.6544 25.1692 17.664 24.4962C18.1721 24.1575 20.5932 23 24 23C26.7614 23 29 25.2386 29 28C29 30.7614 26.7614 33 24 33H21.7819C20.3828 33 19.236 32.1285 18.8216 30.981C18.2588 29.4226 16.5393 28.6156 14.9809 29.1784C13.4226 29.7412 12.6155 31.4607 13.1783 33.019C14.4471 36.532 17.842 39 21.7819 39H24C30.0751 39 35 34.0751 35 28C35 21.9249 30.0751 17 24 17C22.5442 17 21.1934 17.1515 19.9817 17.3885L20.4594 15H32C33.6569 15 35 13.6569 35 12ZM32 11C32.5523 11 33 11.4477 33 12C33 12.5523 32.5523 13 32 13H19.6396C19.1629 13 18.7525 13.3365 18.659 13.8039L17.7151 18.5233C17.6469 18.8641 17.7606 19.2159 18.0154 19.4524C18.2701 19.6888 18.6294 19.776 18.9642 19.6827C20.3754 19.2894 22.0866 19 24 19C28.9706 19 33 23.0294 33 28C33 32.9706 28.9706 37 24 37H21.7819C18.6891 37 16.0435 35.0644 15.0594 32.3397C14.8718 31.8202 15.1408 31.2471 15.6603 31.0595C16.1797 30.8719 16.7529 31.1409 16.9405 31.6603C17.6398 33.5966 19.5362 35 21.7819 35H24C27.866 35 31 31.866 31 28C31 24.134 27.866 21 24 21C20.1978 21 17.3907 22.2747 16.5547 22.8321C16.2181 23.0564 15.7796 23.0559 15.4435 22.8309C15.1075 22.6058 14.9401 22.2005 15.0194 21.8039L17.0194 11.8039C17.1129 11.3365 17.5233 11 18 11H32Z" fill="#333333"/>
</svg>
